apps/filecoin-site/public/assets/logos/flickr-foundation-logo.svg

<svg width="100%" height="100%" fill="none" viewBox="0 0 161 48" xmlns="http://www.w3.org/2000/svg">
<path d="M45.0831 38.568C43.3616 41.4926 39.6313 42.6272 36.5515 41.0867L32.9875 39.3041C32.2319 38.9263 31.3137 39.2319 30.9359 39.9875L35.9952 42.5184C34.3434 44.9759 31.167 45.9271 28.4099 44.7252L27.1824 44.1897L26.7936 44.0198L26.604 44.4C25.0635 47.4799 21.3968 48.8077 18.2656 47.4994L24.2028 35.6325C25.8631 32.3154 29.8979 30.9717 33.2149 32.6309L45.0831 38.568Z" fill="#9F9FA9"/>
<path d="M17.5475 47.2519C14.2341 46.5183 12.0016 43.3211 12.5151 39.9161L13.1093 35.9755C13.2352 35.1404 12.6606 34.3616 11.8255 34.2357L10.9819 39.8292C8.13437 39.0174 6.24783 36.2909 6.53882 33.2979L6.66842 31.9652L6.70999 31.5422L6.2894 31.4786C2.88434 30.9651 0.487956 27.8889 0.765496 24.5059L13.8869 26.4853C17.5548 27.0392 20.0796 30.4614 19.5257 34.1293L17.5475 47.2519Z" fill="#9F9FA9"/>
<path d="M0.781695 23.7472C0.455249 20.369 2.80639 17.2586 6.20289 16.695L10.1337 16.0433C10.9663 15.9051 11.53 15.1178 11.3918 14.2851L5.81042 15.2107C5.70283 12.2519 7.71286 9.61464 10.6496 8.96664L11.9567 8.6781L12.3711 8.5864L12.3014 8.16703C11.7378 4.77053 13.9227 1.5403 17.225 0.757812L19.3964 13.8487C20.0041 17.508 17.5295 20.9669 13.8701 21.5745L0.781695 23.7472Z" fill="#9F9FA9"/>
<path d="M17.9531 0.538843C21.0648 -0.815846 24.7498 0.459372 26.3356 3.51598L28.1708 7.05309C28.5596 7.80257 29.4826 8.09478 30.2321 7.70598L27.6267 2.68458C30.4082 1.66734 33.5369 2.76528 35.0603 5.35728L35.7389 6.51146L35.9541 6.87825L36.3307 6.68262C39.3873 5.09686 43.1347 6.17645 44.8977 9.07656L33.1188 15.1873C29.8262 16.8954 25.7719 15.6116 24.0639 12.3178L17.9531 0.538843Z" fill="#9F9FA9"/>
<path d="M45.3328 9.69922C47.5824 12.2399 47.5091 16.1389 45.0919 18.5915L42.2945 21.4293C41.7015 22.0308 41.7088 22.9991 42.3104 23.5909L46.2815 19.5611C48.1082 21.8914 48.0311 25.206 46.0358 27.4569L45.1481 28.4582L44.8669 28.7761L45.1701 29.0744C47.6228 31.4916 47.7536 35.3882 45.5406 37.9618L36.0884 28.6477C33.4462 26.0435 33.4144 21.7912 36.0187 19.149L45.3328 9.69922Z" fill="#9F9FA9"/>
<path d="M135.317 17.7793C139.376 17.7793 141.171 20.9276 141.171 24.3473C141.171 27.7658 139.375 30.9154 135.317 30.9154C131.259 30.9154 129.463 27.7671 129.463 24.3473C129.463 20.9276 131.259 17.7793 135.317 17.7793ZM135.317 29.5864C138.023 29.5864 139.474 27.2499 139.474 24.3473C139.474 21.4448 138.023 19.1083 135.317 19.1083C132.611 19.1083 131.16 21.4448 131.16 24.3473C131.16 27.2499 132.611 29.5864 135.317 29.5864Z" fill="#9F9FA9"/>
<path d="M143.485 20.8787C143.485 19.5008 143.485 18.9848 143.386 18.0752H144.935V20.485H144.984C145.55 19.0826 146.608 17.7793 148.207 17.7793C148.576 17.7793 149.019 17.8527 149.289 17.9272V19.5509C148.97 19.4519 148.551 19.403 148.157 19.403C145.697 19.403 145.033 22.1576 145.033 24.4207V30.6195H143.485V20.8787Z" fill="#9F9FA9"/>
<path d="M161 29.5851C161 33.0782 159.426 35.9319 155.122 35.9319C153.474 35.9319 151.974 35.4648 151.334 35.268L151.456 33.7189C152.416 34.2104 153.793 34.6041 155.146 34.6041C159.131 34.6041 159.476 31.7015 159.476 28.1595H159.427C158.591 29.98 157.213 30.6195 155.613 30.6195C151.604 30.6195 150.324 27.1264 150.324 24.3473C150.324 20.5339 151.8 17.7793 155.49 17.7793C157.162 17.7793 158.244 18.0006 159.401 19.5008H159.45V18.074H160.999V29.5851H161ZM155.638 29.2893C158.443 29.2893 159.451 26.6325 159.451 24.3449C159.451 21.3189 158.566 19.1059 155.737 19.1059C152.785 19.1059 152.022 21.9094 152.022 24.3449C152.021 26.8049 153.005 29.2893 155.638 29.2893Z" fill="#9F9FA9"/>
<path fill-rule="evenodd" clip-rule="evenodd" d="M122.982 21.5303C122.492 21.3823 122.006 21.3823 121.493 21.3823C119.442 21.3823 118.292 22.8849 118.292 25.3926V30.8016H113.896V17.9919H117.902V20.3516H117.95C118.706 18.7292 119.809 17.6973 121.712 17.6973C122.225 17.6973 122.763 17.7682 123.201 17.8452L122.982 21.5303Z" fill="#9F9FA9"/>
<path fill-rule="evenodd" clip-rule="evenodd" d="M64.8918 21.0878H62.3047V17.9908H64.9688V17.2059C64.9688 13.3962 66.7478 12.0684 70.2678 12.0684C71.219 12.0684 71.9513 12.2163 72.5125 12.3153L72.2411 15.3646C71.8743 15.2411 71.5087 15.1653 70.8473 15.1653C69.7249 15.1653 69.2872 15.9503 69.2872 17.2059V17.9908H72.4123V21.0878H69.2872V30.8017H64.8918V21.0878Z" fill="#9F9FA9"/>
<path fill-rule="evenodd" clip-rule="evenodd" d="M74.1738 30.7998V12.3574H78.5729V30.7998H74.1738Z" fill="#9F9FA9"/>
<path fill-rule="evenodd" clip-rule="evenodd" d="M80.7275 15.9031V12.6582H85.1181V15.9031H80.7275Z" fill="#9F9FA9"/>
<path fill-rule="evenodd" clip-rule="evenodd" d="M80.7275 30.7979V17.9883H85.1181V30.7979H80.7275Z" fill="#9F9FA9"/>
<path fill-rule="evenodd" clip-rule="evenodd" d="M97.0847 21.655C96.2765 21.1647 95.472 20.9458 94.4254 20.9458C92.5181 20.9458 91.0533 22.2724 91.0533 24.4854C91.0533 26.5211 92.7614 27.8489 94.6687 27.8489C95.6725 27.8489 96.6714 27.63 97.4038 27.2351L97.4991 30.5265C96.4 30.8969 95.0832 31.0974 93.9082 31.0974C89.7084 31.0974 86.5112 28.6387 86.5112 24.4096C86.5112 20.1572 89.7121 17.6973 93.9082 17.6973C95.2262 17.6973 96.4012 17.921 97.405 18.4113L97.0847 21.655Z" fill="#9F9FA9"/>
<path fill-rule="evenodd" clip-rule="evenodd" d="M99.3306 12.3574H103.726V23.3747H103.774L107.44 17.9901H112.25L107.83 23.8698L112.616 30.7998H107.294L103.774 24.4543H103.726V30.7998H99.3306V12.3574Z" fill="#9F9FA9"/>
<path d="M125.05 30.8567C125.773 30.8567 126.359 30.271 126.359 29.5485C126.359 28.8259 125.773 28.2402 125.05 28.2402C124.328 28.2402 123.742 28.8259 123.742 29.5485C123.742 30.271 124.328 30.8567 125.05 30.8567Z" fill="#9F9FA9"/>
</svg>

<svg xmlns="http://www.w3.org/2000/svg" fill="currentColor" viewBox="0 0 161 48"><path fill="#9F9FA9" d="M45.083 38.568a6.527 6.527 0 0 1-8.532 2.519l-3.564-1.783a1.529 1.529 0 0 0-2.051.683l5.06 2.531a6.159 6.159 0 0 1-7.586 2.207l-1.228-.535-.388-.17-.19.38c-1.54 3.08-5.207 4.408-8.338 3.1l5.937-11.867a6.718 6.718 0 0 1 9.012-3.002l11.868 5.937ZM17.547 47.252a6.527 6.527 0 0 1-5.032-7.336l.594-3.94a1.529 1.529 0 0 0-1.284-1.74l-.843 5.593a6.159 6.159 0 0 1-4.443-6.531l.13-1.333.041-.423-.42-.063a6.525 6.525 0 0 1-5.525-6.973l13.122 1.98a6.717 6.717 0 0 1 5.639 7.643l-1.979 13.123ZM.782 23.747a6.526 6.526 0 0 1 5.42-7.052l3.932-.652a1.53 1.53 0 0 0 1.258-1.758l-5.582.926a6.16 6.16 0 0 1 4.84-6.244l1.307-.289.414-.092-.07-.419a6.528 6.528 0 0 1 4.924-7.41l2.171 13.092a6.717 6.717 0 0 1-5.526 7.726L.782 23.747ZM17.953.539a6.526 6.526 0 0 1 8.383 2.977l1.835 3.537a1.529 1.529 0 0 0 2.061.653l-2.605-5.021a6.159 6.159 0 0 1 7.433 2.672l.679 1.154.215.367.377-.195a6.525 6.525 0 0 1 8.567 2.394l-11.78 6.11a6.716 6.716 0 0 1-9.054-2.87L17.954.54ZM45.333 9.7a6.526 6.526 0 0 1-.241 8.892l-2.797 2.837a1.528 1.528 0 0 0 .015 2.162l3.971-4.03a6.158 6.158 0 0 1-.245 7.896l-.888 1.001-.281.318.303.298a6.525 6.525 0 0 1 .37 8.888l-9.452-9.314a6.716 6.716 0 0 1-.07-9.499l9.315-9.45ZM135.317 17.78c4.059 0 5.854 3.148 5.854 6.567s-1.796 6.568-5.854 6.568-5.854-3.148-5.854-6.568c0-3.42 1.796-6.568 5.854-6.568Zm0 11.806c2.706 0 4.157-2.336 4.157-5.239 0-2.902-1.451-5.239-4.157-5.239s-4.157 2.337-4.157 5.24c0 2.902 1.451 5.238 4.157 5.238ZM143.485 20.879c0-1.378 0-1.894-.099-2.804h1.549v2.41h.049c.566-1.402 1.624-2.706 3.223-2.706.369 0 .812.074 1.082.148v1.624a4.04 4.04 0 0 0-1.132-.148c-2.46 0-3.124 2.755-3.124 5.018v6.198h-1.548v-9.74ZM161 29.585c0 3.493-1.574 6.347-5.878 6.347-1.648 0-3.148-.467-3.788-.664l.122-1.55a8.51 8.51 0 0 0 3.69.886c3.985 0 4.33-2.902 4.33-6.444h-.049c-.836 1.82-2.214 2.46-3.814 2.46-4.009 0-5.289-3.494-5.289-6.273 0-3.813 1.476-6.568 5.166-6.568 1.672 0 2.754.222 3.911 1.722h.049v-1.427h1.549v11.511H161Zm-5.362-.296c2.805 0 3.813-2.657 3.813-4.944 0-3.026-.885-5.24-3.714-5.24-2.952 0-3.715 2.804-3.715 5.24-.001 2.46.983 4.944 3.616 4.944Z"/><path fill="#9F9FA9" fill-rule="evenodd" d="M122.982 21.53c-.49-.148-.976-.148-1.489-.148-2.051 0-3.201 1.503-3.201 4.01v5.41h-4.396v-12.81h4.006v2.36h.048c.756-1.623 1.859-2.655 3.762-2.655.513 0 1.051.071 1.489.148l-.219 3.685ZM64.892 21.088h-2.587V17.99h2.664v-.785c0-3.81 1.779-5.138 5.299-5.138.951 0 1.683.148 2.245.247l-.272 3.05c-.367-.124-.732-.2-1.394-.2-1.122 0-1.56.785-1.56 2.04v.786h3.125v3.097h-3.125v9.714h-4.395v-9.714ZM74.174 30.8V12.357h4.399V30.8h-4.4ZM80.728 15.903v-3.245h4.39v3.245h-4.39ZM80.728 30.798v-12.81h4.39v12.81h-4.39ZM97.085 21.655c-.808-.49-1.613-.71-2.66-.71-1.907 0-3.372 1.327-3.372 3.54 0 2.036 1.708 3.364 3.616 3.364 1.004 0 2.002-.219 2.735-.614l.095 3.291c-1.099.37-2.416.571-3.59.571-4.2 0-7.398-2.458-7.398-6.687 0-4.253 3.201-6.713 7.397-6.713 1.318 0 2.493.224 3.497.714l-.32 3.244ZM99.33 12.357h4.396v11.018h.048l3.666-5.385h4.81l-4.42 5.88 4.786 6.93h-5.322l-3.52-6.346h-.048V30.8h-4.395V12.357Z" clip-rule="evenodd"/><path fill="#9F9FA9" d="M125.05 30.857a1.309 1.309 0 1 0 0-2.617 1.309 1.309 0 0 0 0 2.617Z"/></svg>
